X:1
T: I'm ow'er young
C:
R:Jig
Q:180
K:D
M:6/8
L:1/16
A2|A4D2 D4E2|F4E2 F4G2|A4D2 D4E2|F4E2 E4B2|A4D2 D4E2|F4E2 F4A2|B4c2 d4B2|A4F2 F4B2|
A4D2 D4E2|F4E2 F4G2|A4D2 D4E2|F4E2 E4B2|A4D2 D4E2|F4E2 F4A2|B4c2 d4B2|A4F2 F4A2|
B4c2 d4B2|A4A2 f4e2|d4B2 A4F2|F4E2 E4A2|B4c2 d4B2|A4f2 d4e2|d4B2 A4F2|F4E2 E4A2|
B4c2 d4B2|A4A2 f4e2|d4B2 A4F2|F4E2 E4A2|B4c2 d4B2|A4f2 d4e2|d4B2 A4F2|F4E2 E4||
